src/assets/images/prototype/autres-elements/4-tablettes.svg

<svg width="302" height="354" viewBox="0 0 302 354" fill="none" xmlns="http://www.w3.org/2000/svg">
<path d="M178.324 41.7166C152.113 42.5487 61.9464 48.308 11.8393 51.6297C7.75205 51.9006 7.09559 54.8448 11.1062 55.6778C46.928 63.1185 172.965 64.0983 195.01 65.0781C220.041 66.1906 290.681 59.5159 296.8 52.2849C302.918 45.054 213.366 40.6042 178.324 41.7166Z" fill="white" stroke="#81EC40" stroke-width="3" stroke-linejoin="round"/>
<path d="M256.626 21.9702C260.608 19.8966 268.121 20.2603 272.462 20.8317C273.4 20.9552 274.265 21.3805 274.969 22.0127L283.774 29.9222C288.216 33.912 288.465 39.7678 288.034 42.197C286.837 50.5081 277.248 62.0345 265.428 75.8711C254.851 88.2524 239.3 107.016 231.75 109.044C231.401 109.138 231.06 109.24 230.709 109.326C227.17 110.199 221.102 106.705 216.89 103.865C214.412 102.194 210.4 98.9324 208.132 96.9862C207.708 96.6227 207.251 96.2218 206.758 95.7795C201.097 90.6941 202.685 84.0024 205.833 78.5141C208.982 73.0258 239.922 37.2596 242.284 34.6296C244.647 31.9997 251.045 24.8769 256.626 21.9702Z" fill="white" stroke="#81EC40" stroke-width="3" stroke-linejoin="round"/>
<path d="M243.935 10.5717C247.917 8.49816 255.429 8.86186 259.771 9.43331C260.709 9.55676 261.574 9.98204 262.278 10.6143L271.083 18.5238C275.524 22.5135 275.773 28.3694 275.343 30.7986C274.145 39.1097 264.557 50.6361 252.737 64.4727C242.16 76.854 226.609 95.6171 219.059 97.6454C218.71 97.7392 218.368 97.8415 218.017 97.928C214.479 98.8001 208.411 95.3067 204.199 92.4663C201.721 90.7953 197.709 87.5339 195.441 85.5878C195.017 85.2242 194.559 84.8234 194.067 84.3811C188.406 79.2957 189.994 72.604 193.142 67.1157C196.29 61.6273 227.231 25.8611 229.593 23.2312C231.956 20.6012 238.354 13.4784 243.935 10.5717Z" fill="white" stroke="#81EC40" stroke-width="3" stroke-linejoin="round"/>
<path d="M105.995 71.8276C101.859 73.5729 97.3496 79.5925 95.0216 83.3019C94.5187 84.1032 94.295 85.0406 94.3333 85.9859L94.8131 97.8121C95.0552 103.778 99.4076 107.703 101.554 108.92C108.72 113.296 123.713 113.258 141.909 112.973C158.191 112.719 182.561 112.7 188.937 108.177C189.232 107.968 189.528 107.77 189.819 107.555C192.747 105.385 193.924 98.4826 194.421 93.4269C194.713 90.4527 194.759 85.2822 194.706 82.2942C194.696 81.736 194.678 81.1279 194.652 80.4666C194.343 72.863 188.175 69.8201 181.94 68.7463C175.705 67.6725 128.424 68.7063 124.892 68.8496C121.359 68.9929 111.793 69.381 105.995 71.8276Z" fill="white" stroke="#81EC40" stroke-width="3" stroke-linejoin="round"/>
<path d="M105.507 59.7573C101.371 61.5026 96.8613 67.5222 94.5333 71.2316C94.0304 72.0329 93.8067 72.9703 93.845 73.9156L94.3248 85.7418C94.5669 91.7072 98.9193 95.6327 101.065 96.8497C108.232 101.226 123.225 101.188 141.421 100.903C157.702 100.648 182.073 100.63 188.448 96.1069C188.743 95.8978 189.04 95.6997 189.33 95.4845C192.258 93.3144 193.436 86.4123 193.933 81.3565C194.225 78.3824 194.271 73.2119 194.217 70.2239C194.207 69.6657 194.19 69.0576 194.163 68.3963C193.855 60.7926 187.687 57.7498 181.452 56.676C175.216 55.6022 127.936 56.6359 124.403 56.7793C120.871 56.9226 111.304 57.3107 105.507 59.7573Z" fill="white" stroke="#81EC40" stroke-width="3" stroke-linejoin="round"/>
<path d="M105.304 54.7846C101.168 56.5299 96.6582 62.5496 94.3302 66.2589C93.8273 67.0602 93.6035 67.9977 93.6419 68.9429L94.1217 80.7692C94.3638 86.7346 98.7162 90.66 100.862 91.8771C108.029 96.2533 123.022 96.2152 141.217 95.9305C157.499 95.6757 181.869 95.6574 188.245 91.1343C188.54 90.9251 188.837 90.727 189.127 90.5118C192.055 88.3417 193.233 81.4396 193.73 76.3839C194.022 73.4097 194.067 68.2392 194.014 65.2512C194.004 64.693 193.987 64.0849 193.96 63.4237C193.652 55.82 187.484 52.7772 181.249 51.7033C175.013 50.6295 127.733 51.6633 124.2 51.8066C120.668 51.9499 111.101 52.3381 105.304 54.7846Z" fill="white" stroke="#81EC40" stroke-width="3" stroke-linejoin="round"/>
<path d="M299.613 200.996V58.801C299.613 55.1964 295.805 52.4334 292.286 53.2148C279.218 56.1167 245.849 61.0845 170.537 61.0845C104.794 61.0845 28.9978 53.9174 7.77922 51.7717C4.72375 51.4627 2.13107 53.9178 2.27634 56.9854C4.53332 104.647 8.55758 193.856 8.55758 211.27V338.615C8.55758 341.183 10.4764 343.31 13.0314 343.56C48.8417 347.063 120.461 352.89 153.329 351.249C185.825 349.627 252.275 345.572 286.201 343.451C289.099 343.269 291.263 340.661 291.12 337.76C290.793 331.18 290.669 319.495 291.542 302.449C293.056 272.912 299.613 229.677 299.613 200.996Z" fill="white" stroke="#81EC40" stroke-width="3" stroke-linejoin="round"/>
</svg>

<svg width="302" height="354" fill="none" xmlns="http://www.w3.org/2000/svg"><path d="M178.324 41.717c-26.211.832-116.378 6.591-166.485 9.913-4.087.27-4.743 3.215-.733 4.048 35.822 7.44 161.859 8.42 183.904 9.4 25.031 1.113 95.671-5.562 101.79-12.793 6.118-7.231-83.434-11.68-118.476-10.568z" fill="#fff" stroke="#81EC40" stroke-width="3" stroke-linejoin="round"/><path d="M256.626 21.97c3.982-2.073 11.495-1.71 15.836-1.138.938.123 1.803.549 2.507 1.18l8.805 7.91c4.442 3.99 4.691 9.846 4.26 12.275-1.197 8.311-10.786 19.837-22.606 33.674-10.577 12.381-26.128 31.145-33.678 33.173-.349.094-.69.196-1.041.282-3.539.873-9.607-2.621-13.819-5.461-2.478-1.671-6.49-4.933-8.758-6.879a81.36 81.36 0 01-1.374-1.207c-5.661-5.085-4.073-11.777-.925-17.265 3.149-5.488 34.089-41.254 36.451-43.884 2.363-2.63 8.761-9.753 14.342-12.66z" fill="#fff" stroke="#81EC40" stroke-width="3" stroke-linejoin="round"/><path d="M243.935 10.572c3.982-2.074 11.494-1.71 15.836-1.139a4.682 4.682 0 012.507 1.181l8.805 7.91c4.441 3.99 4.69 9.845 4.26 12.275-1.198 8.31-10.786 19.837-22.606 33.674-10.577 12.381-26.128 31.144-33.678 33.172-.349.094-.691.197-1.042.283-3.538.872-9.606-2.621-13.818-5.462-2.478-1.67-6.49-4.932-8.758-6.878a78.026 78.026 0 01-1.374-1.207c-5.661-5.085-4.073-11.777-.925-17.265 3.148-5.489 34.089-41.255 36.451-43.885 2.363-2.63 8.761-9.753 14.342-12.66z" fill="#fff" stroke="#81EC40" stroke-width="3" stroke-linejoin="round"/><path d="M105.995 71.828c-4.136 1.745-8.645 7.764-10.973 11.474-.503.801-.727 1.739-.689 2.684l.48 11.826c.242 5.966 4.595 9.891 6.741 11.108 7.166 4.376 22.159 4.338 40.355 4.053 16.282-.254 40.652-.273 47.028-4.796.295-.209.591-.407.882-.622 2.928-2.17 4.105-9.072 4.602-14.128.292-2.974.338-8.145.285-11.133a85.91 85.91 0 00-.054-1.827c-.309-7.604-6.477-10.647-12.712-11.72-6.235-1.075-53.516-.04-57.048.103-3.533.143-13.099.531-18.897 2.978z" fill="#fff" stroke="#81EC40" stroke-width="3" stroke-linejoin="round"/><path d="M105.507 59.757c-4.136 1.746-8.646 7.765-10.974 11.475-.503.8-.726 1.738-.688 2.684l.48 11.826c.242 5.965 4.594 9.89 6.74 11.108 7.167 4.376 22.16 4.338 40.356 4.053 16.281-.255 40.652-.273 47.027-4.796.295-.21.592-.407.882-.623 2.928-2.17 4.106-9.072 4.603-14.127.292-2.975.338-8.145.284-11.133a79.754 79.754 0 00-.054-1.828c-.308-7.603-6.476-10.646-12.711-11.72-6.236-1.074-53.516-.04-57.049.103-3.532.144-13.099.532-18.896 2.978z" fill="#fff" stroke="#81EC40" stroke-width="3" stroke-linejoin="round"/><path d="M105.304 54.785c-4.136 1.745-8.646 7.765-10.974 11.474a4.674 4.674 0 00-.688 2.684l.48 11.826c.242 5.966 4.594 9.891 6.74 11.108 7.167 4.376 22.16 4.338 40.355 4.053 16.282-.254 40.652-.273 47.028-4.796.295-.209.592-.407.882-.622 2.928-2.17 4.106-9.072 4.603-14.128.292-2.974.337-8.145.284-11.133a79.73 79.73 0 00-.054-1.827c-.308-7.604-6.476-10.647-12.711-11.72-6.236-1.075-53.516-.04-57.049.103-3.532.143-13.099.531-18.896 2.978z" fill="#fff" stroke="#81EC40" stroke-width="3" stroke-linejoin="round"/><path d="M299.613 200.996V58.801c0-3.605-3.808-6.368-7.327-5.586-13.068 2.902-46.437 7.87-121.749 7.87-65.743 0-141.54-7.168-162.758-9.313a4.99 4.99 0 00-5.503 5.213c2.257 47.662 6.282 136.871 6.282 154.285v127.345a4.944 4.944 0 004.473 4.945c35.81 3.503 107.43 9.33 140.298 7.689 32.496-1.622 98.946-5.677 132.872-7.798 2.898-.182 5.062-2.79 4.919-5.691-.327-6.58-.451-18.265.422-35.311 1.514-29.537 8.071-72.772 8.071-101.453z" fill="#fff" stroke="#81EC40" stroke-width="3" stroke-linejoin="round"/></svg>
